X:1
T:James Gibb editions
T:To England - Barnby
T:#
%%score 1 { ( 2 3 ) | ( 4 5 ) }
L:1/8
Q:1/4=108
M:4/4
K:D
V:1 treble nm="Voice"
V:2 treble nm="Piano"
V:3 treble 
V:4 bass 
V:5 bass 
V:1
"^Florence Hoare""^To England""^Joseph Barnby\n(1838-96)" z2"^Allegretto con spirito" | z8 | z8 | %3
w: |||
 z8 | z4 z2!mf! A2 | !>!d3 A F2 A2 | F3 E D2 E2 | F2 G2 A2 B2 | E6 E2 | F2 ^G2 A3 G | %10
w: |Where|white her cliffs and|ri- dges gleam, Be-|neath the nor- thern|skies, The|land that fills the|
!<(! A3 B c2!<)! d2 |!f! c2 A2 E2 ^G2 | A4 z2!mf! A2 | !>!d3 A F2 A2 | F3 E D2 E2 | F2 G2 A2 B2 | %16
w: pa- triot's dream, Our|own dear Eng- land|lies, En-|com- passed by a|lord- ly sea, And|wreathed with o- cean|
 E4 z2 E2 | F2 ^G2 A2 G2 |!<(! A3 B c2!<)! d2 |!f! e2 c2 B2 e2 | A4 z2!mp!"^legato" A2 | %21
w: foam, The|land of truth and|li- ber- ty Our|trea- sure and our|home. The|
 B2 A2 B2 c2 | d3 A F2 F2 | G2 E2 A3 G | F4 z2 F2 |"^cresc." F2 ^A2 c3 F | d3 c B2 d2 | %27
w: Fate per- chance our|feet may set Up-|on a far- off|strand, Our|hearts, thank God! are|En- glish yet; God|
 c2 A2 ^G2 c2 | F4 z2!f! A2 | !>!d3 A F2 A2 | F3 E D2 E2 |"^cresc." F2 G2 A2 B2 | c8 | %33
w: bless the dear old|land! To|Eng- land then, with|mer- ry voice Send|forth the old, old|cheer,|
!ff! d !fermata!d2 A F2 A2 | d2 e2 !fermata!f2 d2 | A2 B2 cd !fermata!e2 | d6 z2 | z8 | z8 | z8 | %40
w: Eng- land our best, our|home so blest, God|bless our land * so|dear!||||
 z4 z2 ||!mf! A2 | d3 A F2 A2 | F3 E D2 E2 | F2 G2 A2 B2 | E6 E2 | F3 ^G A2 G2 | %47
w: |'Tis|ours the great- ness|of her past, The|glo- ry she has|known, And|proud- ly still her|
!<(! A3 B c2!<)! d2 |!f! c A3 E3 ^G | A4 z2!mf! A2 | !>!d3 A F2 A2 | F3 E D2 E2 | F2 G2 A2 B2 | %53
w: strength shall last, Which|trusts in God a-|lone; The|migh- ty ones who|made her fame Be|ours to e- mu-|
 E6 E2 | F3 ^G A2 G2 |!<(! A3 B c2!<)! d2 |!f! e2 c2 B2 e2 | A4 z2!mp!"^legato" A2 | B2 A2 B2 c2 | %59
w: late, And|live and toil in|free- dom's name, As|great as they were|great; For|us doth shine the|
 d3 A F2 F2 | G2 E2 A2 G2 | F4 z2 F2 |"^cresc." F2 ^A2 c3 F | d3 c B2 d2 | c2 A2 ^G2 c2 | %65
w: gol- den rays, That|have thro' a- ges|shone; Let's|match them with a|kin- dred blaze, Thro'|a- ges to live|
 F4 z2!f!"^marcato" A2 | !>!d3 A F2 A2 | F3 E D2"^cresc." E2 | F2 G2 A2 B2 |!<(! c6 c2!<)! | %70
w: on; Thank|God! her great free|tongue is ours, That|shall the world com-|mand, To|
!ff! d3 A F2 A2 | d2 e2 !fermata!f2 d2 | A3 B cd !fermata!e2 | d6 z2 | z8 | z8 | z8 | z4 z2 |] %78
w: Eng- land migh- ti-|est of powers, God|bless the dear * old|land.|||||
V:2
 A2 | [Fd]3 A F2 A2 | [Fd]2 A2 d2 [GBde]2 | [FAdf]2 ed [Ae]2 [Aa]2 | [Ad]2 z2 [dfad']2 z2 | %5
!p! [DFd]2 z2 z2 [A,D]2 |!>(! [A,C]4- [A,D]2!>)! [CE]2 | [DF]2 [DG]2 [DA]2 [DB]2 | [DE]4 [CE]2 E2 | %9
 F2 [E^G]2 [EA]3 [EG] |!<(! [EA]3 [EB] [Ec]2!<)! [DAd]2 |!f! [EAc]2 z2 [D^GB]2 z2 | %12
 [CEA]2!<(! [A,A]>[A,A] [A,A]2!<)! [A,A]2 | [A,DFA]2 z2 z2!p! [A,D]2 | %14
!>(! [A,C]4-!>)! [A,D]2 [CE]2 | [DF]2 [DG]2 [DA]2 [DB]2 |!>(! [DE]4 [CE]2!>)! E2 | %17
 F2 [E^G]2 [EA]2 [EG]2 |!<(! [EA]3 [EB] [Ec]2!<)! [DAd]2 | [EAc]2 z2 [D^GB]2 z2 | %20
!<(! [CEA]2 [A,A]>!<)![A,A]!>(! [A,A]2 [A,A]2!>)! | z (A,[CG]A,) z (A,[CG]A,) | %22
 z (A,[DF]A,) z (A,[DF]A,) | z (B,[DG]B,) z (A,[CG]A,) | z (A,[DF]A,) z (A,[DF]A,) | %25
 z (^A,[EF]A,) z (A,[EF]A,) | z (B,[DF]B,) z (B,[DF][A,C]) | z (A,[CF]A,) z (B,[C^E]B,) | %28
!<(! z (A,CF) A2!<)! [CGA]2 | [DFA]2 z2 z2!p! [A,D]2 |!>(! [A,C]4-!>)! [A,D]2 [CE]2 | %31
 [DF]2 [DG]2 [DA]2 [DEB]2 | c8 |!ff! !fermata![DFd]3 A F2 A2 | [Fd]2 [Ae]2 !fermata![df]2 .[Gdg]2 | %35
 .[Ada]2 z2 [Aega]2 !fermata!z2 | [dfad']2 [Dd]>[Dd] [Dd]2 A2 | [Fd]3 A F2 A2 | %38
 [Fd]2 A2 d2 [GBde]2 | [FAdf]2 ed [Ae]2 [Aa]2 | [Ad]2 z2 [dfad']2 || z2 |!p! [DFd]2 z2 z2 [A,D]2 | %43
!>(! [A,C]4- [A,D]2!>)! [CE]2 | [DF]2 [DG]2 [DA]2 [DB]2 | ((D4 [CE]2)) E2 | F3 [E^G] [EA]2 [EG]2 | %47
!<(! [EA]3 [EB] c2!<)! [DAd]2 | [EAc]2 z2 [D^GB]2 z2 |!<(! [CEA]2 [A,A]>[A,A] [A,A]2 [A,A]2!<)! | %50
 [A,DFA]2 z2 z2!p! [A,D]2 |!>(! [A,C]4- [A,D]2!>)! [CE]2 | [DF]2 [DG]2 [DA]2 [DB]2 | E4 [CEG]2 E2 | %54
 F3 [E^G]/ x/ [EA]2 [EG]2 |!<(! [EA]3 [EB] [Ec]2 [DAd]2!<)! |!f! [EAc]2 z2 [D^GB]2 z2 | %57
!<(! [CEA]2 [A,A]>!<)!!>(![A,A] [A,A]2 [A,A]2!>)! |!p! z (A,[CG]A,) z (A,[CG]A,) | %59
 z (A,[DF]A,) z (A,[DF]A,) | z (B,[DG]B,) z (A,[CG]A,) | z (A,[DF]A,) z (A,[DF]A,) | %62
 z (^A,[EF]A,) z (A,EA,) | z (B,[DF]B,) z (B,[DF]B,) | z A,[CF]A, z (B,[C^E]B,) | %65
 z!<(! (A,CF A2)!<)! [CGA]2 | [DFA]2 z2 z2!p! [A,D]2 | [A,C]4- [A,D]2 [CE]2 | %68
"^cresc." [DF]2 [DG]2 [DA]2 [DEB]2 |!<(! [CE-c-]4 [E=Gc]4!<)! |!ff! [DFd]3 A F2 A2 | %71
 [Fd]2 [Ae]2 !fermata![df]2 .[Gdg]2 | .[Ada]2 z2 [Aega]2 !fermata!z2 | %73
 [dfad']2 [Dd]>[Dd] [Dd]2 A2 | [Fd]3 A F2 A2 | [Fd]2 A2 d2- [GBde]2 | [FAdf]2 ed x2 [Aa]2 | %77
 [Ad]2 z2 [dfad']2 |] %78
V:3
 x2 | x4 x4 | x4 x4 | x2 A2 x4 | x4 x4 | x4 x4 | x8 | x8 | x8 | x8 | x8 | x8 | x8 | x8 | x8 | x8 | %16
 x8 | x8 | x8 | x8 | x8 | x8 | x8 | x8 | x8 | x8 | x8 | x8 | x8 | x4 x4 | x4 x4 | x4 x4 | %32
 [CE]4 [E!courtesy!=G]4 | x8 | x8 | x8 | x8 | x8 | x8 | x2 A2 x4 | x4 x2 || x2 | x4 x4 | x8 | x8 | %45
 x8 | x8 | x8 | x8 | x8 | x8 | x8 | x8 | x8 | x8 | x8 | x8 | x8 | x8 | x8 | x8 | x8 | x8 | x8 | %64
 x8 | x8 | x8 | x8 | x8 | x8 | x8 | x8 | x4 x4 | x4 x4 | x4 x4 | x4 x4 | x2 A2 x4 | x6 |] %78
V:4
 A,2 | [F,D]3 A, F,2 A,2 | [D,D]2 z2 z2 [G,,G,]2 | [A,,A,]2 [A,DF]2 [A,,A,]2 [A,CG]2 | %4
 [DF]2 z2 [D,,D,]2 z2 | [D,A,]2 z2 z2 F,2 | (G,4 F,2) A,,2 | [D,,D,]2 [E,,E,]2 [F,,F,]2 [G,,G,]2 | %8
 (([^G,,^G,]4 [A,,A,]2)) z2 | [D,A,]2- [D,B,]2 [C,A,]3 [D,B,] | %10
 [C,A,]3 [B,,^G,] [A,,A,]2 [F,,F,]2 | [E,,E,]2 z2 [E,,E,]2 z2 | [A,,A,]2 z2 z4 | %13
 [D,,D,]2 z2 z2 F,2 | (G,4 F,2-) [A,,A,]2 | [D,,D,]2 [E,,E,]2 [F,,F,]2 [G,,G,]2 | %16
 ((([^G,,^G,]4 [A,,A,]2))) E,2 | A,2 B,2 [C,A,]2 [D,B,]2 | [C,A,]3 [B,,^G,] [A,,A,]2 [F,,F,]2 | %19
!f! [E,,E,]2 z2 [E,,E,]2 z2 | [A,,A,]2 z2 z4 |!p! A,,2 z2 A,,2 z2 | A,,2 z2 A,,2 z2 | %23
 A,,2 z2 A,,2 z2 | D,2 z2 D,2 z2 |"^cresc." C,2 z2 F,,2 z2 | B,,2 z2 ^G,,2 z2 | C,2 z2 C,2 z2 | %28
 F,2 z2 z2!f! [E,,E,]2 | [D,,D,]2 z2 z2 F,2 | (G,4 F,2) [A,,A,]2 | %31
 [D,,D,]2 [E,,E,]2 [F,,F,]2 [^G,,^G,]2 | [A,,A,]8 | !fermata![D,A,]3 A, F,2 A,2 | %34
 [F,D]2 [A,E]2 !fermata![DF]2 .[B,D]2 | [A,DF]2 z2 [A,,A,]2 !fermata!z2 | [D,,D,]2 z2 z2 A,2 | %37
 [F,D]3 A, F,2 A,2 | [D,D]2 z2 z2 [G,,G,]2 | [A,,A,]2 [A,DF]2 [A,,A,]2 [A,CG]2 | %40
 [DF]2 z2 [D,,D,]2 || z2 | [D,A,]2 z2 z2 F,2 | G,4 F,2 A,,2 | [D,,D,]2 [E,,E,]2 [F,,F,]2 [G,,G,]2 | %45
 ((([^G,,^G,]4 [A,,A,]2))) z2 | A,3 B, [C,A,]2 [D,B,]2 | [C,A,]3 [B,,^G,] [A,,A,]2 [F,,F,]2 | %48
!f! [E,,E,]2 z2 [E,,E,]2 z2 | [B,,A,]2 z2 z4 | [D,,D,]2 z2 z2 F,2 | G,4 F,2 [A,,A,]2 | %52
 [D,,D,]2 E,,2 [F,,F,]2 [G,,G,]2 | ((([^G,,^G,]4- [A,,A,]2))) z2 | A,3 B, [C,A,]2 [D,B,]2 | %55
 [C,A,]3 [B,,G,] [A,,A,]2 [F,,F,]2 | [E,,E,]2 z2 [E,,E,]2 z2 | [A,,A,]2 z2 z4 | A,,2 z2 A,,2 z2 | %59
 A,,2 z2 A,,2 z2 | A,,2 z2 A,,2 z2 | D,2 z2 D,2 z2 |"^cresc." C,2 z2 F,,2 z2 | B,,2 z2 G,,2 z2 | %64
 C,2 z2 C,2 z2 | F,2 z2 z2!f! [E,,E,]2 | [D,,D,]2 z2 z2 F,2 | G,4 F,2 [A,,A,]2 | %68
 [D,,D,]2 [E,,E,]2 [F,,F,]2 [^G,,^G,]2 | [A,,A,]8 | [D,A,]3 A, F,2 A,2 | %71
 [F,D]2 [A,E]2 !fermata![DF]2 .[B,D]2 | .[A,DF]2 z2 [A,,A,]2 !fermata!z2 | [D,,D,]2 z2 z2 A,2 | %74
 [F,D]3 A, F,2 A,2 | [D,D]2 z2 z2 [G,,G,]2 | [A,,A,]2 [A,DF]2 [A,,A,]2 [A,CG]2 | %77
 [DF]2 z2 [D,,D,F,]2 |] %78
V:5
 x2 | x8 | x8 | x8 | x8 | x8 | x8 | x8 | x8 | x8 | x8 | x8 | x8 | x8 | x8 | x8 | x8 | x8 | x8 | %19
 x8 | x8 | x8 | x8 | x8 | x8 | x8 | x8 | x8 | x8 | x8 | x8 | x8 | x8 | x8 | x8 | x8 | x8 | x8 | %38
 x8 | x8 | x6 || x2 | x8 | x4 x4 | x4 x4 | x4 x4 | D,4 x4 | x8 | x8 | x8 | x8 | x4 x4 | x4 x4 | %53
 x4 x4 | D,4 x4 | x8 | x8 | x8 | x8 | x8 | x8 | x8 | x8 | x8 | x8 | x8 | x8 | x8 | x8 | x8 | x8 | %71
 x8 | x8 | x8 | x8 | x8 | x8 | x6 |] %78

